material/.icons/material/harddisk.svg

<svg xmlns="http://www.w3.org/2000/svg" viewBox="0 0 24 24"><path d="M6 2h12a2 2 0 012 2v16a2 2 0 01-2 2H6a2 2 0 01-2-2V4a2 2 0 012-2m6 2a6 6 0 00-6 6c0 3.31 2.69 6 6.1 6l-.88-2.23a1.01 1.01 0 01.37-1.37l.86-.5a1.01 1.01 0 011.37.37l1.92 2.42A5.977 5.977 0 0018 10a6 6 0 00-6-6m0 5a1 1 0 011 1 1 1 0 01-1 1 1 1 0 01-1-1 1 1 0 011-1m-5 9a1 1 0 00-1 1 1 1 0 001 1 1 1 0 001-1 1 1 0 00-1-1m5.09-4.73l2.49 6.31 2.59-1.5-4.22-5.31-.86.5z"/></svg>

<?xml version="1.0" encoding="UTF-8"?><!DOCTYPE svg PUBLIC "-//W3C//DTD SVG 1.1//EN" "http://www.w3.org/Graphics/SVG/1.1/DTD/svg11.dtd"><svg xmlns="http://www.w3.org/2000/svg" xmlns:xlink="http://www.w3.org/1999/xlink" version="1.1" id="mdi-harddisk" width="24" height="24" viewBox="0 0 24 24"><path d="M6,2H18A2,2 0 0,1 20,4V20A2,2 0 0,1 18,22H6A2,2 0 0,1 4,20V4A2,2 0 0,1 6,2M12,4A6,6 0 0,0 6,10C6,13.31 8.69,16 12.1,16L11.22,13.77C10.95,13.29 11.11,12.68 11.59,12.4L12.45,11.9C12.93,11.63 13.54,11.79 13.82,12.27L15.74,14.69C17.12,13.59 18,11.9 18,10A6,6 0 0,0 12,4M12,9A1,1 0 0,1 13,10A1,1 0 0,1 12,11A1,1 0 0,1 11,10A1,1 0 0,1 12,9M7,18A1,1 0 0,0 6,19A1,1 0 0,0 7,20A1,1 0 0,0 8,19A1,1 0 0,0 7,18M12.09,13.27L14.58,19.58L17.17,18.08L12.95,12.77L12.09,13.27Z" /></svg>
